X:178
T: ACH HAETT ICH HUNDERTTAUSEND GULDEN
N: Z0177
O: Europa, Mitteleuropa, Deutschland, Ober - Deutschand
R: Soldaten -, Jaeger - Lied
M: 2/4
L: 1/8
K: G
D | GDB,D | G2B2 | AG2
B | AGFE | G2E2 | D3
D | GDB,D | G2B2 | AG2
B | AGFE | G2E2 | D3
D | AAAB | c2B2 | A3
G | FEDc | B2A2 | G3

